X: 29986
T: Octopus, The
R: waltz
M: 3/4
K: Dmajor
|:"D"FA AF A/B/d|"G"BA FD ED|"D"FA AF A/B/d|"G"BA- A"A"E- ED|
"D"FA AF A/B/d|"G"BA FD ED|"Em"EF DA, B,/D/E|"G"D2 DA, ED:|
"Em"ef dA B/d/e|"D/F#"dA fe ed|"G"ef dA B/d/e|"A"dA ae ed|
"Em"ef dA B/d/e|"D/F#"dA fe ed|"G"ef dA B/d/e|"A"dB AF ED|

